X:1
T:Ah Mio Cor
T:Ah! Mio cor
T:Alcina - original key
T:Handel
%%score 1 { ( 2 4 ) | 3 }
L:1/8
Q:1/4=80
M:3/4
K:Eb
V:1 treble nm="Voice"
V:2 treble nm="Piano"
V:4 treble 
V:3 bass 
V:1
 z4 z2 | z2 z4 | z6 | z6 | z6 | z6 | z6 | z6 | z6 | z6 | z6 | z6 | z6 | z6 | z6 | z2 c4- | %16
w: |||||||||||||||Ah!|
 c4 (AG) | !fermata!G6 |S z2 z2 G2 | g2 f4 | ed c4 | z6 | z6 | g2 c2 z2 | ag f2 z2 | f2 A3 A | %26
w: _ mi- o|cor!|Scher-|ni- to|se- * i!|||Stel- le!|De- * i!|Nu- me d'a-|
 A2 G2 z2 | z2 e3 e | e2 d2 z2 | z2 f3 f | fe e2 z2 | ed cB =AG | G2 ^F2 z2 | ^f6 | g2 d2 z2 | %35
w: mor- e!|Tra- di-|to- re!|T'a- mo|tan- * to;|puoi la- sciar- mi so- la in|pian- to,|oh|De- i!|
 g2 f4 | e2 d4 | g2 c4 | d4 z2 | e4 e2 | ed d2 z2 | c4 d2 | B=A G2 z2 | g^f g2 z2 | G^F G2 z2 | %45
w: Puoi la-|sciar- mi oh|Dei! Per-|chè?|T'a- mo|tan- * to!|Puoi la-|sciar- * mi|so- * la,|so- * la,|
 _a2 g4 | g2 ^f4 | z2 g2 =f2 | e2 d2 c2 | Bc =A4 | G6 | z6 | z6 | z6 | z6 | =e4 g2 | B6 | %57
w: so- la in|pian- to,|puoi la-|sciar- mi, oh|Dei! _ Per-|chè?|||||Ah! Mio|cor!|
 g2 =e2 c2 | A2 f2 z2 | _g4 f2 | _dc B2 z2 | _d2 c3 B | AG F2 z2 | z2 =B3 B | c=B c2 z2 | z2 d3 g | %66
w: Scher- ni- to|se- i!|Stel- le!|De- * i!|Nu- me d'a-|mo- * re!|Tra- di|to- * re!|T'a- mo|
 ed e2 z2 | ag fe dc | c2 =B2 z g | a6 | g6 | z2 f3 g | ed c2 z2 | c=B c2 z2 | c=B c2 z2 | _d2 c4 | %76
w: tan- * to;|puoi la- sciar- mi so- la in|pian- to, oh|De-|i!|Puoi la-|sciar- * mi|so- * la,|so- * la,|so- la in|
 c2 =B2 z2 | z2 g2 f2 | e2 d2 c2 | d2 =B4 | c4 z2 | z2 z2 c2 | =e2 z2 c2 | f2 z2 z2 | gf =ed cB | %85
w: pian- to|puoi la-|sciar- mi, oh|Dei! Per-|chè?|Per-|chè? Per-|chè?|Puoi la- sciar- mi so- la in|
 AG F2 z f | f2 !fermata!G2 z2 | z2 g2 f2 | e2 d2 c2 | d2 =B4 | c4 z2 | z6 | z6 | z6 | z6 | z6 | %96
w: pian- * to, oh|De- i!|Puoi la-|sciar- mi, oh|Dei! Per-|chè?||||||
 z6 | z6 | z6 | z6 | z6!fine! |[M:4/4][Q:1/4=100] B4 z2 z B | cdef dc B2 | z2 Be e2 d2 | %104
w: |||||Ma, che|fa ge- men- do Al- ci- * na?|Son re- i- na,|
 z Beg f2 B2 | z2 ed c2 c2 | z2 fe d2 d2 | z2 e4 d2- | d2 cB =AA/F/ fe | d2 c>B B2 z d | %110
w: e tem- po an- co- ra:|re- sti, o mo- ra,|pe- ni sem- pre,|pe- ni,|_ pe- ni sem- * * pre, o|tor- * ni a me, o|
 cd/e/ dc/B/ c2 f2- | f2 e2 e2 de | =A3 B B2 z2 | z4 B2 z f | gecf d/c/B z2 | z2 dg g2 ^f2 | %116
w: tor- * * ni a- * * me, pe-|* ni sem- pre, o|tor- ni a me|Ma, che|fa ge- men- do Al- ci- * na?|Son re- i- na,|
 z dgB =A>G A2 | z2 gf e>d e2 | z2 fe d>c d2 | z2 e/4 z/4 z/ e d2 cd/e/ | B3 =A/G/ G2 GA | %121
w: e tem- po an- co- * ra.|Re- sti, o mo- * ra!|Pe- ni sem- * pre,|pe- ni sem- pre, o- *|tor- ni a me, res- ti, o|
 =Bcde f_agd | e=Bcd G2 z2 | z8 | z2 ce d2 G2 | z ggB A>G A2 | z2 fA A2 G2 | z2 eB c3 f | %128
w: mo- ra, pe- ni sem- pre, pe- ni|sem- pre, o tor- ni a me,||son re- i- na,|e tem- po an co- * ra|re- sti, o mo- ra,|pe- ni sem- pre, o|
 d3 e A2 z2 | f3 B g2 fe | d3 e e4 |[M:3/4][Q:1/4=80] c4 AG | G6!D.S.! |] %133
w: tor- ni a me,|pe- ni sem- pre, o|tor- ni a me.|Ah! Mi- o|cor!|
V:2
 [EGc] z [EGc] z [EGc] z | [DGc] z [DG=B] z [DGd] z | [EGd] z [EGc] z [Ace] z | %3
 [FBe] z [FBd] z [FBdf] z | [GBf] z [GBe] z [Gcg] z | [Acg] z [Acf] z [Ada] z | %6
 [DG=B] z [GBd] z [Bdg] z | [=Bda] z [Bda] z [Bda] z | [ceg] z [ceg] z [ceg] z | %9
 [=Bdf] z [Bdf] z [Bdf] z | [Gce] z [Gce] z [Gce] z | [Gc=e] z [Gce] z [Gce] z | %12
 [Acf] z [Acf] z [Acf] z | [Gdf]2 z [G=Bd] [Gce]2 | dc =B3 c | [EGc]4 z2 | z6 | z6 | %18
 [EGc] z [EGc] z [EGc] z | [Gcd] z [G=Bd] z [GBd] z | [ce] z [Gc] z [Ace] z | %21
 [FBe] z [FBd] z [Adf] z | [Gf] z [GBe] z [GBg] z | [=EGB] z [GB] z [GB] z | [FA] z [FA] z [FA] z | %25
 [DFA] z [DFA] z [FA] z | [EAB] z [EGB] z [EGB] z | [EGB] z [EGB] z [EGB] z | %28
 [EGB] z [DFB] z [DFB] z | [DF=B] z [GBd] z [GBd] z | [Gc] z [Ec] z [Gc] z | %31
 [Gce] z [Gce] z [=Ace] z | [G=A] z [^FA] z [FA] z | [^F=Ace]6 | [GBd]6 | [DGB] z [DG=B] z [Gd] z | %36
 [EGc] z [D=Ad] z [^FAd] z | [Gd] z [Gc] z [Gcg] z | [=Ad^f] z [Adf] z [Adf] z | %39
 [=Ac^f] z [Acf] z [Acf] z | [Bg] z [Bdg] z [Bdg] z | [D^F=A] z [DFA] z [DFA] z | [DB]2 g4 | %43
 [=Aeg]6 | [Bdg]6 | [ce_a]2 [G^cg]4 | [Bdg]2 [=Ad^f]4 | [Gd] z [GBd] z [G=Bd] z | %48
 [Gce] z [^F=A] z [Gc] z | B[=Ac] [^FA]3 G | [=B,G] gfgfg | egegeg | d g[df]g[df]g | %53
 [ce]g[ce]g[ce]g | [=Bd]g[Bd]g[Bd]g | [G_B=e]6- | [GBe]6 | [GB=e]6 | [Acf] z [Acf] z [Acf] z | %59
 [=Ace] z [Ace] z [Fcf] z | [FB_d] z [FBd] z [FBd] z | [=EG_d] z [Gc] z [Gc] z | %62
 [FAc] z [FAc] z [FAc] z | [DF=B] z [DFB] z [DFB] z | [CG] z [CEG] z [Gc] z | %65
 [DGd] z [G=Bd] z [Gd] z | [Ge] z [Gce] z [Gce] z | [Acf] z [Fcf] z [Adf] z | %68
 [Gcd] z [G=Bd] z [GBd] z | [=Bd_a]6 | [ceg]6 | [=Bdf]6 | [Gce]2 c'4 | [dfc']6 | [egc']6 | %75
 [A_df]2 [Ac^f]4 | [Gg]6 | [Gc] z [Gcg] z [=Bdf] z | [Gce] z [F=Bd] z [Gc] z | fd [=Bd]3 c | %80
 [EGc]c_BcBc | AcAcAc | Gc[GB]c[GB]c | [FA]c[FA]c[FA]c | [C=EG] z [CEG] z [CEG] z | %85
 [FA] z [CFA] z [DFA] z | !fermata![DG]6 | z2 [Gdg]2 [G=Bf]2 | [Gce]2 [F=Bd]2 [Gc-]2 | %89
 [DAc]2 [DG=B]4 | [EGc]4 [G=Bd]2 | [Gce]2 [Gc=e]4 | f2 g4 | a2 g3 a | [Bdf]6 | Bbgbeg | c6 | %97
 z afadf | =B3 [Ba] [Gcg]2 | fe d3 c | !fermata![EGc]6 |[M:4/4] [GB]FEE GAB[GB] | %102
 cdec dc F/B/c/d/ | e/B/B/e/ e/B/B/e/ f/B/B/f/ f/B/B/f/ | g/B/B/g/ g/B/e/c/ d/b/f/d/ B/F/D/d/ | %105
 b/B/B/b/ b/B/B/b/ b/c/c/b/ b/c/c/b/ | a/c/c/a/ a/c/c/a/ a/B/B/a/ a/B/B/a/ | %107
 g/B/B/g/ g/B/B/g/ f/=A/c/f/ f/B/B/f/ | B/G/G/B/ e/G/G/e/ e/F/F/e/ d/c/[GB]/c/ | %109
 F/B/=A/B/ F[CA] [DB]/F/F/B/ B/F/F/B/ | [C=A][CF] [DF]2 f/A/A/f/ f/A/A/f/ | %111
 g/B/B/g/ g/c/c/g/ =a/c/c/a/ b[GB] | [C=A]3 [DB] [DB]2 z [dg] | gecf d/b/f/d/ B/F/D/F/ | %114
 B3 =A B2 z/ d/=e/^f/ | g/d/d/g/ g/d/d/g/ =a/d/d/a/ a/d/d/a/ | %116
 b/d/d/b/ b/d/d/g/ ^f/=a/f/d/ =A/^F/D/d/ | b/d/d/b/ b/d/d/b/ b/c/c/b/ b/c/c/b/ | %118
 =a/c/c/a/ a/c/c/a/ a/B/B/a/ a/B/B/a/ | g/B/B/g/ g/B/B/g/ [^F=A][A^f][cg]G | [GB]3 [^F=A] z2 GA | %121
 =Bcde f_agd | e=Bcd G2 z/ A/=A/=B/ | c/G/G/c/ c/G/G/c/ d/G/G/d/ d/G/G/d/ | %124
 e/G/G/e/ e/d/c/d/ =B/g/d/B/ G/D/=B,/G,/ | C/G,/G,/C/ C/=E/E/C/ C/c/c/f/ f/a/a/B/ | %126
 B/D/D/B/ B/D/D/B/ B/E/E/B/ B/E/E/B/ | e/B/B/e/ e/B/B/e/ [CE]3 [CF] | [DF]3 [EG] [EA]2 z2 | %129
 [FB]2 z2 [GB]2 [Fc]2 | [Bd]4 [Be]4 |[M:3/4] z6 | z6 |] %133
V:3
 z CE,G,C,C | z G,D,G,G,,G, | z G,E,G,C,A, | z B,F,B,B,,B, | z B,G,B,=E,C | z CA,CF,D | %6
 z G,D,G,G,,G, | z FDFG,F | z ECEG,E | z D=B,DG,D | z CG,CC,C | z _B,G,B,C,B, | z A,F,A,C,A, | %13
 =B,,G,B,,G,C,G, | F,A, G,2 G,,2 | C,4 z2 | z6 | z6 | CG,E,G,C,C | z G,D,G,G,,G, | CG,E,G,C,A, | %21
 z B,F,B,B,,B, | z B,G,B,E,B, | z B,=E,CE,C | z CA,CF,C | z B,F,B,D,B, | z E,B,,E,G,,E, | %27
 E,,B,G,B,E,B, | z B,F,B,B,,B, | D,D=B,DG,D | C C,G,CE,C | C,G,E,G,C,C | z D=A,DD,D | z C=A,CD,C | %34
 z B,G,B,B,,B, | z G,D,G,=B,,G, | C,G,^F,D,DD, | E,2 E4 | z D=A,DD,D | z C=A,CD,C | z B,G,B,D,B, | %41
 z =A,^F,A,D,D | G,D,B,,G,B,,G, | z =A,C,A,C,A, | z B,D,B,D,B, | z CE,B,E,B, | D,B,D,=A,C,A, | %47
 B,,DB,DG,D | C,G,D,G,E,G, | D,C, D,2 D,,2 | G,,4 z2 | z6 | z6 | z6 | z6 | C,CG,C=E,C | %56
 z CG,C=E,C | z CG,C=E,C | z CA,CF,C | z E,=A,,E,A,,=A, | z F,B,,F,B,,B, | z B,=E,CE,C | %62
 z CA,CF,C | D,F,G,,G,F,G, | E,G,E,CE,G, | =B,,G,G,,G,B,,G, | C,G,E,G,C,C | F,DA,CF,C | %68
 z G,D,G,G,,G, | z FDFG,F | z ECEG,E | G,D=B,DG,B, | CG,E,CE,C | z DF,DF,D | z EG,EG,E | %75
 z FA,EA,E | G,EG,DF,D | E,CE,CD,G, | C,G,D,G,E,G, | F,A, G,2 G,,2 | C,2 z4 | C,2 z4 | C,2 z4 | %83
 C,2 z4 | C, z C, z C, z | F,CA,CF,A, | !fermata![=B,,G,]6 | z2 =B,2 G,2 | C,2 D,2 E,2 | %89
 F,2 G,2 G,,2 | C,4 [G,,G,]2 | C,CB,CG,C | A,C=E,CC,C | F,B,G,B,E,B, | B,,B,A,B,F,B, | [G,EG]6 | %96
 [A,E]ECEA,C | [F,CF]6 | [G,D]3 [F,D] [E,C]2 | [F,,F,]2 [G,,G,]2 [G,,,G,,]2 | !fermata![C,,C,]6 | %101
[M:4/4] E,A,G,F, E,F,G,E, | A,F,G,A, B,CDB, | G,F,G,E, B,2 z B,, | E,2 z E,, B,,2 z A, | %105
 G,2 z F, E,2 z G, | F,2 z F,, B,,2 z B, | E,2 z C, F,=A,B,D, | E,2 z C, F,=A,,B,,E, | %109
 F,E,F,F,, B,,C,D,B,, | F,=A,[B,,B,] z F,2 z D, | E,D,E,C, F,F,,G,,E,, | F,,E,F,F,, B,,C,D,B,, | %113
 E,C,F,F,, B,,2 z D, | E,C,F,F,, B,,B,DC | B,=A,B,G, D2 z D, | G,2 z G,, D,2 z ^F, | %117
 G,2 z G,, C,2 z C, | F,2 z F, B,2 z B, | C,2 z C, D,DE[CE] | DCDD, G,2 z2 | z8 | z4 z F,E,D, | %123
 E,2 z C =B,2 z B, | C2 z C, G,2 z F, | =E,2 z C, F,2 z _E, | D,2 z B,, E,2 z G, | %127
 G,,2 z G, A,G,A,[F,A,] | B,A,B,[G,B,] C2 z2 | D,2 z2 E,2 A,2 | B,2 B,,2 E,4 |[M:3/4] z6 | z6 |] %133
V:4
 x6 | x6 | x6 | x6 | x6 | x6 | x6 | x6 | x6 | x6 | x6 | x6 | x6 | x6 | AF [DG]4 | x6 | x6 | x6 | %18
 x6 | x6 | x6 | x6 | x6 | x6 | x6 | x6 | x6 | x6 | x6 | x6 | x6 | x6 | x6 | x6 | x6 | x6 | x6 | %37
 x6 | x6 | x6 | x6 | x6 | x6 | x6 | x6 | x6 | x6 | x6 | x6 | GE D4 | x6 | x6 | x6 | x6 | x6 | x6 | %56
 x6 | x6 | x6 | x6 | x6 | x6 | x6 | x6 | x6 | x6 | x6 | x6 | x6 | x6 | x6 | x6 | x6 | x6 | x6 | %75
 x6 | c2 =B4 | x6 | x6 | AF D2 G2 | x6 | x6 | x6 | x6 | x6 | x6 | x6 | x6 | x6 | x6 | x6 | x6 | %92
 [Fc]2 c2 =e2 | [cf][Bd] [B_e]3 [Bf] | x6 | x6 | x6 | x6 | x6 | [Ac]2 [Dc]2 [G=B]2 | x6 | %101
[M:4/4] x4 e2 x2 | EABF F2 F2 | x8 | x8 | x8 | x8 | x8 | x8 | x8 | x8 | x8 | x8 | B3 =A x4 | %114
 G E3 D2 z2 | x8 | x8 | x8 | x8 | x8 | x8 | x8 | x8 | x8 | x8 | x8 | x8 | x8 | x8 | x8 | F2 A2 G4 | %131
[M:3/4] x6 | x6 |] %133

